X:345
T:El Marineru (XA 15)
C:Tradicional
S:Msica Tradicional Asturiana, (C) Tello & Tito. Asturies, 2001.
S:http://pagina.de/MusTradAst <telloytito@asturies.org>
A:Asturies
Z:Mtodu de Xuacu Amieva 15
M:3/8
L:1/8
Q:3/8=72
K:C
E/F/
|: GGG|GF>E|G3-|G2 E/F/|GGG|GF>E|E D2-|D2 B,/C/|
|DDD|DEF|E2 ~D|CDE|D2 ~C|B,CD|[1 G3-G2 E/F/ :|[2 G3-|G3|
|C3|B,2 C|D F2-|F3|~DB,C|DEF|G3-|G3|c3|B2 G|A3|[1 G2 F|E3|DG>A|E3-|E3 :|
[2 G2 ~F|E3|DG>E|C3|
